X:1
T:Rake and Rambling Boy
M:4/4
L:1/4
K:C
 GG/2-E/2 D| C4-| C D/2D/2 C A,| C4-| C c c/2c/2 A| c/2 c3/2- c2-|\
 c d c A| G4-| G c c A| c c c2-| c A G/2G/2 E/2D/2| C4-| C C/2C/2 C D|\
 E3/2 G/2- G2-| G A/2A/2 E D| C4-| C||

